src/assets/icons/public-profile/stats.svg

<svg width="48" height="48" viewBox="0 0 48 48" fill="none" xmlns="http://www.w3.org/2000/svg">
<path d="M39.9643 2.4V43.2H33.5357V21.5857C33.5357 20.2603 32.4564 19.1857 31.125 19.1857C29.7936 19.1857 28.7143 20.2603 28.7143 21.5857V43.2H22.2857V5.59165C22.2857 4.26617 21.2064 3.19165 19.875 3.19165C18.5436 3.19165 17.4643 4.26617 17.4643 5.59165V43.2H11.0357V27.98C11.0357 26.6545 9.9564 25.58 8.625 25.58C7.2936 25.58 6.21429 26.6545 6.21429 27.98V43.2H4.98529C3.88885 43.2 3 44.2745 3 45.6C3 46.9255 3.88885 48 4.98529 48H46.0147C47.1112 48 48 46.9255 48 45.6C48 44.2745 47.1112 43.2 46.0147 43.2H44.7857V2.4C44.7857 1.07452 43.7064 0 42.375 0C41.0436 0 39.9643 1.07452 39.9643 2.4Z" fill="#253238"/>
</svg>

<svg width="48" height="48" viewBox="0 0 48 48" fill="none" xmlns="http://www.w3.org/2000/svg"><path d="M39.964 2.4v40.8h-6.428V21.586c0-1.326-1.08-2.4-2.411-2.4a2.405 2.405 0 00-2.41 2.4V43.2h-6.43V5.592c0-1.326-1.079-2.4-2.41-2.4a2.405 2.405 0 00-2.41 2.4V43.2h-6.43V27.98c0-1.326-1.079-2.4-2.41-2.4a2.405 2.405 0 00-2.41 2.4V43.2h-1.23C3.89 43.2 3 44.275 3 45.6S3.889 48 4.985 48h41.03C47.11 48 48 46.925 48 45.6s-.889-2.4-1.985-2.4h-1.23V2.4c0-1.325-1.079-2.4-2.41-2.4a2.405 2.405 0 00-2.41 2.4z" fill="#253238"/></svg>
